X:1
T:Kid on the Mountain, The
R:slip jig
M:9/8
K:Em
~E3 FEF G2F|~E3 BcA BGE|EDE FEF G2A|BAG FAG FED:|
BGB AFA G2D|GAB dge dBA|BGB AFA G2A|BAG FAG FED:|
gfg eBe e2f|~g3 efg afd|gfg eBe g2a|bag fag fed:|
eBe e2f g2f|eBe efg afd|eBe e2f g2a|bag fag fed:|
edB dBA G2D|GAB dge dBd|edB dBA G2A|BAG FAG FED:|
</abc>
